X: 1
T: Sing We Now of Christmas   [Dm]
C:
O:
S: https://hymnary.org/text/sing_we_now_of_christmas
Z: 2018 John Chambers <jc:trillian.mit.edu>
M: 2/4
L: 1/8
K: Ddor
% - - - - - - - - - -
D [|\
"Dm"DA "G"BG | "Dm"A2 F2 | "G"G(G/A/) "A7"FE | "Dm"D4 |\
"Dm"DA "G"BG | "Dm"A2 F2 | "G"G(G/A/) "A7"FE | "Dm"D4 |]
|:\
"Dm"F2    ED | "A7"E3 A, | "Dm"FF         ED | "A7"E4 :|\
"Dm"DA "G"BG | "Dm"A2 F2 | "G"G(G/A/) "A7"FE | "Dm"D4 |]
